svg/fluentui-system-icons/ic_fluent_font_space_tracking_out_24_filled.svg

<svg width="24" height="24" viewBox="0 0 24 24" fill="none" xmlns="http://www.w3.org/2000/svg">
<path d="M4.38737 16.2097C4.74697 15.9301 5.25357 15.9301 5.61317 16.2097L5.70737 16.2929L5.79056 16.3871C6.07017 16.7467 6.07017 17.2533 5.79056 17.6129L5.70737 17.7071L5.414 18H18.586L18.2932 17.7071C17.9327 17.3466 17.9049 16.7794 18.21 16.3871L18.2932 16.2929C18.6536 15.9324 19.2209 15.9047 19.6132 16.2097L19.7074 16.2929L21.7074 18.2929C22.0679 18.6534 22.0956 19.2206 21.7906 19.6129L21.7074 19.7071L19.7074 21.7071C19.3169 22.0976 18.6837 22.0976 18.2932 21.7071C17.9327 21.3466 17.9049 20.7794 18.21 20.3871L18.2932 20.2929L18.585 20H5.415L5.70737 20.2929L5.79056 20.3871C6.09559 20.7794 6.06786 21.3466 5.70737 21.7071C5.34689 22.0676 4.77966 22.0953 4.38737 21.7903L4.29316 21.7071L2.29316 19.7071L2.20997 19.6129C1.93037 19.2533 1.93037 18.7467 2.20997 18.3871L2.29316 18.2929L4.29316 16.2929L4.38737 16.2097ZM8.119 2.41653L8.18277 2.5203L8.23586 2.6356L12.5402 13.6356C12.7415 14.1499 12.4877 14.73 11.9734 14.9312C11.4958 15.1181 10.9615 14.9126 10.7265 14.4706L10.6777 14.3644L9.56627 11.525H5.04227L3.93151 14.3644C3.74463 14.842 3.23112 15.0949 2.74692 14.9675L2.63587 14.9312C2.15829 14.7444 1.90536 14.2308 2.03279 13.7467L2.06903 13.6356L6.37337 2.6356C6.67341 1.86884 7.68368 1.79582 8.119 2.41653ZM20.0914 2.52972C20.3265 2.08762 20.8607 1.88215 21.3383 2.06903C21.8159 2.2559 22.0688 2.76942 21.9414 3.25361L21.9052 3.36467L17.6008 14.3647L17.5477 14.48C17.1765 15.1737 16.1626 15.1737 15.7914 14.48L15.7383 14.3647L11.434 3.36467L11.3977 3.25361C11.2801 2.80667 11.4866 2.33473 11.8947 2.11779L12.0008 2.06903L12.1119 2.03279C12.5588 1.91516 13.0307 2.12163 13.2477 2.52972L13.2965 2.63587L16.6693 11.2573L20.0427 2.63587L20.0914 2.52972ZM7.30427 5.743L5.82427 9.525H8.78427L7.30427 5.743Z" fill="#212121"/>
</svg>

<svg xmlns="http://www.w3.org/2000/svg" width="24" height="24"><path d="M4.387 16.21a1 1 0 0 1 1.226 0l.094.083.084.094a1 1 0 0 1 0 1.226l-.084.094-.293.293h13.172l-.293-.293a1 1 0 0 1-.083-1.32l.083-.094a1 1 0 0 1 1.32-.083l.094.083 2 2a1 1 0 0 1 .084 1.32l-.084.094-2 2a1 1 0 0 1-1.497-1.32l.083-.094.292-.293H5.415l.292.293.084.094a1 1 0 0 1-1.404 1.403l-.094-.083-2-2-.083-.094a1 1 0 0 1 0-1.226l.083-.094 2-2 .094-.083ZM8.12 2.417l.064.103.053.116 4.304 11a1 1 0 0 1-1.813.835l-.05-.107-1.11-2.839H5.041l-1.11 2.84a1 1 0 0 1-1.185.602l-.111-.036a1 1 0 0 1-.603-1.184l.036-.111 4.304-11c.3-.767 1.31-.84 1.746-.22Zm11.972.113a1 1 0 0 1 1.85.724l-.036.11-4.304 11-.053.116c-.371.694-1.385.694-1.757 0l-.053-.115-4.304-11-.036-.111a1 1 0 0 1 .497-1.136L12 2.069l.11-.036a1 1 0 0 1 1.137.497l.049.106 3.372 8.621 3.374-8.621.048-.106ZM7.304 5.743l-1.48 3.782h2.96l-1.48-3.782Z"/></svg>
